X:22
T:Jenny Jones. WHG.022
R:waltz
S:W.H.Giles MS,Bampton,Oxfordshire,1839p22
O:England
H:donated by Mrs W.R.Kettlewell to VWML,Apr 1927.
A:Bampton, Oxfordshire
N:8 bars are given, with repeat marks. At the end of the stave,
N:in squeezed but large letters, is written “Jim Crow”. Odd. – PJH.
N:Below are the words “Lead Through down the middle back again &
N:Possette”. Presumably that last word ought to be “poussette”.
N:The tune Jim Crow is later in the MS, p53, WHG048.
Z:PJHeadford – VMP 2009
M:3/4
L:1/8
Q:1/4=120
K:G
d2|g2d2 BA|G2A2 B2|c2e2 ag|f2d2 f2|\
g2d2 B2|c3d e2|d2g2 f2|g4:|

